gama.ui.shared/icons_svg/light/layer/layer.event.svg

<?xml version="1.0" encoding="UTF-8" standalone="no"?>
<!DOCTYPE svg PUBLIC "-//W3C//DTD SVG 1.1//EN" "http://www.w3.org/Graphics/SVG/1.1/DTD/svg11.dtd">
<svg xmlns="http://www.w3.org/2000/svg" version="1.1" xmlns:xl="http://www.w3.org/1999/xlink" xmlns:dc="http://purl.org/dc/elements/1.1/" viewBox="-526.872 -3651.1973 24.75 24.75" width="24.75" height="24.75">
  <defs/>
  <g id="SOURCES" stroke-opacity="1" stroke="none" fill-opacity="1" stroke-dasharray="none" fill="none">
    <title>SOURCES</title>
    <g id="SOURCES_Light">
      <title>Light</title>
      <g id="Graphic_12738">
        <title>views/view.other</title>
        <path d="M -522.65697 -3650.8223 L -506.33697 -3650.8223 C -504.2162 -3650.8223 -502.49697 -3649.103 -502.49697 -3646.9823 L -502.49697 -3630.6623 C -502.49697 -3628.5415 -504.2162 -3626.8223 -506.33697 -3626.8223 L -522.65697 -3626.8223 C -524.77774 -3626.8223 -526.497 -3628.5415 -526.497 -3630.6623 L -526.497 -3646.9823 C -526.497 -3649.103 -524.77774 -3650.8223 -522.65697 -3650.8223 Z" fill="#66727e"/>
      </g>
      <g id="Group_12743">
        <title>press</title>
        <g id="Graphic_12744">
          <path d="M -515.49956 -3640.3173 L -515.49956 -3637.7673 C -515.49956 -3637.4373 -515.61956 -3637.1173 -515.82956 -3636.8573 C -516.32956 -3636.2573 -517.21956 -3636.1773 -517.81956 -3636.6773 L -518.73956 -3637.4473 C -519.01956 -3637.6873 -519.37956 -3637.8073 -519.74956 -3637.8073 C -520.01956 -3637.8073 -520.25956 -3637.6573 -520.36956 -3637.4173 L -520.40956 -3637.3473 C -520.54956 -3637.0673 -520.49956 -3636.7373 -520.30956 -3636.4973 L -515.89956 -3631.1773 C -515.18956 -3630.3173 -514.12956 -3629.8173 -513.00956 -3629.8173 C -510.51956 -3629.8173 -508.50956 -3631.8273 -508.50956 -3634.3173 L -508.50956 -3638.3173 C -508.50956 -3638.5973 -508.72956 -3638.8173 -509.00956 -3638.8173 C -509.28956 -3638.8173 -509.50956 -3638.5973 -509.50956 -3638.3173 L -509.50956 -3637.3173 C -509.50956 -3637.0373 -509.72956 -3636.8173 -510.00956 -3636.8173 C -510.28956 -3636.8173 -510.50956 -3637.0373 -510.50956 -3637.3173 L -510.50956 -3639.3173 C -510.50956 -3639.5973 -510.72956 -3639.8173 -511.00956 -3639.8173 C -511.28956 -3639.8173 -511.50956 -3639.5973 -511.50956 -3639.3173 L -511.50956 -3637.3173 C -511.50956 -3637.0373 -511.72956 -3636.8173 -512.00956 -3636.8173 C -512.28956 -3636.8173 -512.50956 -3637.0373 -512.50956 -3637.3173 L -512.50956 -3640.3173 C -512.50956 -3640.5973 -512.72956 -3640.8173 -513.00956 -3640.8173 C -513.28956 -3640.8173 -513.50956 -3640.5973 -513.50956 -3640.3173 L -513.50956 -3637.3173 C -513.50956 -3637.0373 -513.72956 -3636.8173 -514.00956 -3636.8173 C -514.28956 -3636.8173 -514.50956 -3637.0373 -514.50956 -3637.3173 L -514.50956 -3645.3173 C -514.50956 -3645.5973 -514.72956 -3645.8173 -515.00956 -3645.8173 C -515.28956 -3645.8173 -515.50956 -3645.5973 -515.50956 -3645.3173 L -515.50956 -3640.3173 Z M -516.49956 -3640.3173 L -516.49956 -3642.1573 C -517.70956 -3642.7273 -518.49956 -3643.9473 -518.49956 -3645.3173 C -518.49956 -3647.2473 -516.92956 -3648.8173 -514.99956 -3648.8173 C -513.06956 -3648.8173 -511.49956 -3647.2473 -511.49956 -3645.3173 C -511.49956 -3643.9473 -512.28956 -3642.7273 -513.49956 -3642.1573 L -513.49956 -3641.7373 C -513.33956 -3641.7973 -513.17956 -3641.8273 -512.99956 -3641.8273 C -512.30956 -3641.8273 -511.72956 -3641.3573 -511.54956 -3640.7173 C -511.37956 -3640.7873 -511.18956 -3640.8273 -510.99956 -3640.8273 C -510.30956 -3640.8273 -509.72956 -3640.3573 -509.54956 -3639.7173 C -509.37956 -3639.7873 -509.18956 -3639.8273 -508.99956 -3639.8273 C -508.16956 -3639.8273 -507.49956 -3639.1573 -507.49956 -3638.3273 L -507.49956 -3634.3273 C -507.49956 -3631.2873 -509.95956 -3628.8273 -512.99956 -3628.8273 C -514.41956 -3628.8273 -515.75956 -3629.4573 -516.65956 -3630.5473 L -521.07956 -3635.8573 C -521.52956 -3636.3973 -521.61956 -3637.1473 -521.31956 -3637.7873 L -521.27956 -3637.8573 C -520.99956 -3638.4473 -520.39956 -3638.8173 -519.74956 -3638.8173 C -519.14956 -3638.8173 -518.56956 -3638.6073 -518.09956 -3638.2173 L -517.17956 -3637.4473 C -516.99956 -3637.2973 -516.73956 -3637.3273 -516.59956 -3637.4973 C -516.53956 -3637.5673 -516.49956 -3637.6673 -516.49956 -3637.7673 L -516.49956 -3640.3173 Z M -513.49956 -3643.3173 C -512.87956 -3643.7773 -512.49956 -3644.5173 -512.49956 -3645.3173 C -512.49956 -3646.6973 -513.61956 -3647.8173 -514.99956 -3647.8173 C -516.37956 -3647.8173 -517.49956 -3646.6973 -517.49956 -3645.3173 C -517.49956 -3644.5173 -517.11956 -3643.7773 -516.49956 -3643.3173 L -516.49956 -3645.3173 C -516.49956 -3646.1473 -515.82956 -3646.8173 -514.99956 -3646.8173 C -514.16956 -3646.8173 -513.49956 -3646.1473 -513.49956 -3645.3173 Z" fill="white"/>
        </g>
      </g>
    </g>
  </g>
</svg>

<svg height="24.75" viewBox="-526.872 -3651.197 24.75 24.75" width="24.75" xmlns="http://www.w3.org/2000/svg"><g fill="none"><path d="m-522.65697-3650.8223h16.32c2.12077 0 3.84 1.7193 3.84 3.84v16.32c0 2.1208-1.71923 3.84-3.84 3.84h-16.32c-2.12077 0-3.84003-1.7192-3.84003-3.84v-16.32c0-2.1207 1.71926-3.84 3.84003-3.84z" fill="#66727e"/><path d="m-515.49956-3640.3173v2.55c0 .33-.12.65-.33.91-.5.6-1.39.68-1.99.18l-.92-.77c-.28-.24-.64-.36-1.01-.36-.27 0-.51.15-.62.39l-.04.07c-.14.28-.09.61.1.85l4.41 5.32c.71.86 1.77 1.36 2.89 1.36 2.49 0 4.5-2.01 4.5-4.5v-4c0-.28-.22-.5-.5-.5s-.5.22-.5.5v1c0 .28-.22.5-.5.5s-.5-.22-.5-.5v-2c0-.28-.22-.5-.5-.5s-.5.22-.5.5v2c0 .28-.22.5-.5.5s-.5-.22-.5-.5v-3c0-.28-.22-.5-.5-.5s-.5.22-.5.5v3c0 .28-.22.5-.5.5s-.5-.22-.5-.5v-8c0-.28-.22-.5-.5-.5s-.5.22-.5.5v5zm-1 0v-1.84c-1.21-.57-2-1.79-2-3.16 0-1.93 1.57-3.5 3.5-3.5s3.5 1.57 3.5 3.5c0 1.37-.79 2.59-2 3.16v.42c.16-.06.32-.09.5-.09.69 0 1.27.47 1.45 1.11.17-.07.36-.11.55-.11.69 0 1.27.47 1.45 1.11.17-.07.36-.11.55-.11.83 0 1.5.67 1.5 1.5v4c0 3.04-2.46 5.5-5.5 5.5-1.42 0-2.76-.63-3.66-1.72l-4.42-5.31c-.45-.54-.54-1.29-.24-1.93l.04-.07c.28-.59.88-.96 1.53-.96.6 0 1.18.21 1.65.6l.92.77c.18.15.44.12.58-.05.06-.07.1-.17.1-.27zm3-3c.62-.46 1-1.2 1-2 0-1.38-1.12-2.5-2.5-2.5s-2.5 1.12-2.5 2.5c0 .8.38 1.54 1 2v-2c0-.83.67-1.5 1.5-1.5s1.5.67 1.5 1.5z" fill="#fff"/></g></svg>
